X:1
T:Victimae Paschalis
T:Victimae Paschali
T:Seth Calvisius
T:Source : Harmonia-Cantionum Ecclesiasticarum---Leipzig---F.Schnelboltz---1597. Editor : André Vierendeels (07/12/14).
C:Seth Calvisius
%%score [ 1 2 3 4 ]
L:1/8
Q:1/4=90
M:2/2
K:F
V:1 treble nm="Cantus" snm="C"
V:2 treble nm="Altus" snm="A"
V:3 treble-8 nm="Tenor" snm="T"
V:4 bass nm="Bassus" snm="B"
V:1
 G4 ^F4 | G4 B4 | c4 B4 | A4 B4 | G8 | d8 | c4 B4 | c4 B4 | A4 B4 | G8 |: d8 | ^f4 g4 | d4 ^c4 | %13
w: Vic- ti-|mae Pa-|scha- li|lau- *|des|im-|mo- lent|Chri- sti-|a- *|ni.|A-|gnus re-|de- mit|
w: ||||||||||Mors|et vi-|ta du-|
 d4 d4 | d8 | c4 d4 | c4 B4 | A4 B4 | G8 | B4 c4 | G4 B4 | G4 F4 | B4 B4 | A4 B4 | G8 :: D4 ^F4 | %26
w: o- ves,|Chri-|stus in-|no- cens|Pa- *|tri|re- con|ci- li-|a- vit|pec- ca-|to- *|res,|dic no-|
w: el- lo,|con-|fli- xe-|re mi-|ran- *|do,|dux vi-|tae mor-|tu- us,|re- gnat|vi- *|vus,|an- ge-|
 G4 =B4 | c4 G4 | F4 B4 | A4 G4 | A4 ^F4 | G8 | B4 d4 | c4 d4 | B4 c4 | A4 B4 | G8 | B4 c4 | %38
w: bis Ma-|ri- a:|quid vi-|di- sti|in vi-|a?|Se- pul-|chrum Chri-|sti vi-|ven- *|tis,|et glo-|
w: li- cos|tes- tes,|su- da-|ri- um|et ves-|tes,|sur- re-|xit Chri-|stus spes|me- *|a,|prae- ce-|
 B4 c4 | d4 d4 | B4 c4 | A4 B4 | G8 :: d8 | ^f4 g4 | d4 c4 | d8 | d4 d4 | d4 f4 | c4 B4 | A4 B4 | %51
w: ri- am|vi- di|re- sur-|ge- *|tis.|Cre-|den- dum|est ma-|gis,|so- li|Ma- ri-|ae ve-|ra- *|
w: det su-|os in|Ga- li-|lae- *|a,|||||||||
 G8 | F4 A4 | G4 c4 | d4 d4 | =B4 c4 | A4 B4 | G8 | d4 ^f4 | g4 d4 | d4 ^c4 | d4 d4 | d4 f4 | %63
w: ci:|quam Iu-|dae- o-|rum tur-|bae fal-|la- *|ci.|Sci- mus|Chri- stum|sur- re-|xis- se|a mor-|
w: ||||||||||||
 c4 B4 | A4 B4 | G8 | F4 A4 | G4 c4 | d4 d4 | =B4 c4 | A4 B4 | G8 |] %72
w: tu- is|ve- *|re,|tu no-|bis vic-|tor rex,|mi- se-|re- *|re.|
w: |||||||||
V:2
 D4 D4 | D4 G4 | G4 G4- | G4 ^F4 | G8 | B8 | A4 G4 | G4 G4- | G4 ^F4 | G8 |: A8 | A4 B4 | G4 A4 | %13
w: Vic- ti-|mae Pa-|scha- li|_ lau-|des|im-|mo- lent|Chri- sti-|* a-|ni.|A-|gnus re-|de- mit|
w: ||||||||||Mors|et vi-|ta du-|
 A4 A4 | B8 | A4 B4 | F4 G4- | G4 ^F4 | G8 | D4 F4 | D4 F4 | E4 F4 | G4 G4- | G4 ^F4 | G8 :: %25
w: o- ves,|Chri-|stus in-|no- cens|_ Pa-|tri|re- con-|ci- li-|a- vit|pec- ca-|* to-|res,|
w: el- lo,|con-|fli- xe-|re mi-|* ran-|do,|dux vi-|tae mor-|tu- us,|re- gnat|_ vi-|vus,|
 D4 C4 | D4 D4 | F4 C4 | D4 F4 | F4 D4 | D4 D4 | D8 | G4 F4 | c4 B4 | G4 G4- | G4 ^F4 | G8 | %37
w: dic no-|bis Ma-|ri- a:|quid vi-|di- sti|in vi-|a?|Se- pul-|chrum Chri-|sti vi-|* ven-|tis,|
w: an- ge-|li- cos|tes- tes,|su- da-|ri- um|et ves-|tes,|sur- re-|xit Chri-|stus spes|_ me-|a,|
 F4 A4 | G4 A4 | B4 F4 | G4 G4- | G4 ^F4 | G8 :: A8 | A4 B4 | G4 A4 | A8 | B4 B4 | B4 A4 | F4 G4- | %50
w: et glo-|ri- am|vi- di|re- sur-|* gen-|tis.|Cre-|den- dum|est ma-|gis,|so- li|Ma- ri-|ae ve-|
w: prae- ce-|det su-|os in|Ga- li-|* lae-|a,||||||||
 G4 ^F4 | G8 | A4 F4 | G4 A4 | B4 F4 | G4 G4- | G4 ^F4 | G8 | A4 A4 | B4 B4 | G4 A4 | A4 A4 | %62
w: * ra-|ci:|quam Iu-|dae- o-|rum tur-|bae fal-|* la-|ci.|Sci- mus|Chri- stum|sur- re-|xis- se|
w: ||||||||||||
 B4 A4 | F4 G4- | G4 ^F4 | G8 | A4 F4 | G4 A4 | B4 F4 | G4 G4- | G4 ^F4 | G8 |] %72
w: a mor-|tu- is|_ ve-|re,|tu no-|bis vic-|tor rex,|mi- se-|* re-|re.|
w: ||||||||||
V:3
 B4 A4 | B4 d4 | _e4 d4 | d8 | B8 | f8 | f4 d4 | _e4 d4 | d8 | d8 |: d8 | d4 d4 | d4 e4 | ^f4 f4 | %14
w: Vic- ti-|mae Pa-|scha- li|lau-|des|im-|mo- lent|Chri- sti-|a-|ni.|A-|gnus re-|de- mit|o- ves,|
w: ||||||||||Mors|et vi-|ta du-|el- lo,|
 f8 | f4 f4 | c4 d4 | d8 | d8 | B4 A4 | G4 d4 | c4 A4 | G4 d4 | d8 | d8 :: B4 c4 | B4 G4 | A4 G4 | %28
w: Chri-|stus in-|no- cens|Pa-|tri|re- con-|ci- li-|a vit|pec- ca-|to-|res,|dic no-|bis Ma-|ri- a:|
w: con-|fli- xe-|re mi-|ran-|do,|dux vi-|tae mor-|tu- us,|re- gnat|vi-|vus,|an- ge-|li- cos|tes- tes,|
 A4 B4 | c4 B4 | A4 A4 | B8 | d4 d4 | e4 g4 | d4 _e4 | d8 | B8 | d4 f4 | d4 f4 | f4 d4 | d4 _e4 | %41
w: quid vi-|di- sti|in vi-|a?|Se- pul-|chrum Chri-|sti vi-|ven-|tis,|et glo-|ri- am|vi- di|re- sur-|
w: su- da-|ri- um|et ves-|tes,|sur- re-|xit Chri-|stus spes|me-|a,|prae- ce-|dit su-|os in|Ga- li-|
 d8 | d8 :: d8 | d4 d4 | d4 e4 | f8 | f4 f4 | g4 c4 | c4 d4 | d8 | d8 | d4 d4 | e4 e4 | f4 d4 | %55
w: gen-|tis.|Cre-|den- dum|est ma-|gis,|so- li|Ma- ri-|ae ve-|ra-|ci:|quam Iu-|dae- o-|rum tur-|
w: lae-|a,|||||||||||||
 d4 _e4 | d8 | d8 | d4 d4 | d4 d4 | d4 e4 | ^f4 f4 | d4 c4 | c4 d4 | d8 | d8 | d4 d4 | e4 e4 | %68
w: bae fal-|la-|ci.|Sci- mus|Chri- stum|sur- re-|xis- se|a mor-|tu- is|ve-|re,|tu no-|bis vic-|
w: |||||||||||||
 f4 d4 | d4 _e4 | d8 | d8 |] %72
w: tor rex,|mi- se-|re-|re.|
w: ||||
V:4
 G,4 D,4 | G,4 G,4 | C,4 G,4 | D,8 | _E,8 | B,,8 | F,4 G,4 | C,4 G,4 | D,8 | G,8 |: D,8 | D4 G,4 | %12
w: Vic- ti-|mae Pa-|scha- li|lau-|des|im-|mo- lent|Chri- sti-|a-|ni.|A-|gnus re-|
w: ||||||||||Mors|et vi-|
 B,4 A,4 | D,4 D,4 | B,8 | F,4 B,4 | A,4 G,4 | D,8 | G,8 | G,4 F,4 | B,4 B,,4 | C,4 D,4 | G,4 G,4 | %23
w: de- mit|o- ves,|Chri-|stus in-|no- cens|Pa-|tri|re- con-|ci- li-|a- vit|pec- ca-|
w: ta du-|el- lo,|con-|fli- xe-|re mi-|ran-|do,|dux vi-|tae mor-|tu- us,|re- gnat|
 D,8 | G,8 :: B,,4 A,,4 | G,,4 G,4 | F,4 E,4 | D,4 B,,4 | F,4 G,4 | D,4 D,4 | G,8 | G,4 B,4 | %33
w: to-|res,|dic no-|bis Ma-|ri- a:|quid vi-|di- sti|in vi-|a?|Se- pul-|
w: vi-|vus,|an- ge-|li- cos|tes- tes,|su- da-|ri- um|et ves-|tes,|sir- re-|
 A,4 G,4 | G,4 C,4 | D,8 | _E,8 | B,,4 F,4 | G,4 F,4 | B,4 B,4 | G,4 C,4 | D,8 | G,8 :: D,8 | %44
w: chrum Chri-|sti vi-|ven-|tis,|et glo-|ri- am|vi- di|re- sur-|gen-|tis.-|Cre-|
w: xit Chri-|stus spes|me-|a,|prae- ce-|det su-|os in|Ga- li-|lae-|a,||
 D4 G,4 | B,4 A,4 | D,8 | B,4 B,4 | G,4 F,4 | A,4 G,4 | D,8 | G,8 | D,4 D,4 | C,4 C,4 | B,,4 B,4 | %55
w: den- dum|est ma-|gis,|so- li|Ma- ri-|ae- ve-|ra-|ci:|quam Iu-|dae- o-|rum tur-|
w: |||||||||||
 G,4 C,4 | D,8 | G,8 | D,4 D4 | G,4 G,4 | B,4 A,4 | D,4 D,4 | B,4 F,4 | A,4 G,4 | D,8 | G,8 | %66
w: bae- fal-|la-|ci.|Sci- mus|Chri- stum|sur- re-|xis- se|a mor-|tu- is|ve-|re,|
w: |||||||||||
 D,4 D,4 | C,4 C,4 | B,,4 B,4 | G,4 C,4 | D,8 | G,8 |] %72
w: tu no-|bis vic-|tor rex,|mi- se-|re-||
w: ||||||

